img/bg-top.svg

<?xml version="1.0" encoding="UTF-8"?>
<svg width="3200px" height="720px" viewBox="0 0 3200 720" version="1.1" xmlns="http://www.w3.org/2000/svg" xmlns:xlink="http://www.w3.org/1999/xlink">
    <!-- Generator: Sketch 44.1 (41455) - http://www.bohemiancoding.com/sketch -->
    <title>bg-top</title>
    <desc>Created with Sketch.</desc>
    <defs>
        <linearGradient x1="103.418541%" y1="28.6722681%" x2="9.75962602%" y2="90.7646858%" id="linearGradient-1">
            <stop stop-color="#E8A640" offset="0%"></stop>
            <stop stop-color="#FC7E34" offset="100%"></stop>
        </linearGradient>
        <linearGradient x1="50%" y1="-23.1262353%" x2="50%" y2="100%" id="linearGradient-2">
            <stop stop-color="#FFFFFF" stop-opacity="0.5" offset="0%"></stop>
            <stop stop-color="#FFFFFF" offset="100%"></stop>
        </linearGradient>
    </defs>
    <g id="Page-1" stroke="none" stroke-width="1" fill="none" fill-rule="evenodd">
        <g id="Desktop" transform="translate(-997.000000, -90.000000)">
            <g id="bg-top" transform="translate(997.000000, 90.000000)">
                <path d="M0,669.719675 C0,669.719675 633.863648,480.373627 1107.97606,480.373627 C1642.58825,480.373627 2099.64189,858.551511 2099.64189,776.674345 C2099.64189,305.869723 3200,669.719675 3200,669.719675 L3200,-1.25055521e-12 L0,-1.25055521e-12 L0,669.719675 Z" id="Path-2" fill="url(#linearGradient-1)" transform="translate(1600.000000, 394.140091) scale(1, -1) translate(-1600.000000, -394.140091) "></path>
                <path d="M2,338.674181 C2,338.674181 156.982904,473.930571 395.372931,470.88375 C554.222955,468.859351 699.370141,321.732625 911.107708,338.674181 C1054.08891,350.115098 1211.27551,510.972971 1370.94325,508.662294 C1534.01815,506.300496 1704.80742,344.972309 1953.14064,338.674181 C2201.47387,332.376053 2415.47436,541.410515 2614.00921,546.430614 C2955.09085,555.059868 3190.55924,376.687882 3196.2066,395.336885 L3196.2066,787.916795 L2,787.916795 L2,338.674181 Z" id="Fill-1" fill="#FFFFFF" style="mix-blend-mode: overlay;" opacity="0.200000003"></path>
                <path d="M2,640.578087 C2,640.578087 115.18459,349.840551 516.888012,358.90704 C836.828263,366.132081 901.616347,553.502265 1087.71508,553.912779 C1240.99441,554.24119 1415.90916,350.907886 1575.50024,358.907039 C1733.62625,366.835818 1876.95669,573.981035 2031.81182,575.576174 C2182.67207,577.124397 2309.85014,344.668078 2551.07056,337.243644 C2792.29099,329.819211 2863.51581,494.095063 2968.67761,553.912774 C3132.2295,646.923451 3196.2066,662.241482 3196.2066,662.241482 L3196.2066,787.600639 L2,787.600639 L2,640.578087 Z" id="Fill-3" fill="#FFFFFF" style="mix-blend-mode: overlay;" opacity="0.400000006"></path>
                <path d="M3196.2066,532.072206 C3038.85572,532.072206 3015.64449,693.357177 2519.59698,683.739428 C2385.06552,681.135598 2100.25302,452.831332 1953.14064,445.406898 C1783.28551,436.821297 1607.69785,619.722747 1433.8819,618.737514 C1256.29253,617.728824 1096.28407,455.68147 930.364206,445.406898 C748.422198,434.135365 560.32176,660.950052 411.113981,640.400909 C96.4122292,597.07412 2,467.070293 2,467.070293 L2,787.43519 L3196.2066,787.43519 L3196.2066,532.072206 Z" id="Fill-5" fill="url(#linearGradient-2)" opacity="0.633718297"></path>
            </g>
        </g>
    </g>
</svg>

<svg width="3200" height="720" viewBox="0 0 3200 720" xmlns="http://www.w3.org/2000/svg"><title>bg-top</title><desc>Created with Sketch.</desc><defs><linearGradient x1="103.419%" y1="28.672%" x2="9.76%" y2="90.765%" id="a"><stop stop-color="#E8A640" offset="0%"/><stop stop-color="#FC7E34" offset="100%"/></linearGradient><linearGradient x1="50%" y1="-23.126%" x2="50%" y2="100%" id="b"><stop stop-color="#fff" stop-opacity=".5" offset="0%"/><stop stop-color="#fff" offset="100%"/></linearGradient></defs><g fill="none"><path d="M0 118.56s633.864 189.346 1107.976 189.346c534.612 0 991.666-378.178 991.666-296.301 0 470.805 1100.358 106.955 1100.358 106.955v669.72h-3200v-669.72z" fill="url(#a)"/><path d="M2 338.674s154.983 135.256 393.373 132.21c158.85-2.024 303.997-149.151 515.735-132.21 142.981 11.441 300.168 172.299 459.836 169.988 163.075-2.362 333.864-163.69 582.197-169.988 248.333-6.298 462.334 202.736 660.869 207.756 341.082 8.629 576.55-169.743 582.197-151.094v392.58h-3194.207v-449.243z" fill="#fff" style="mix-blend-mode:overlay" opacity=".2"/><path d="M2 640.578s113.185-290.738 514.888-281.671c319.94 7.225 384.728 194.595 570.827 195.006 153.279.328 328.194-203.005 487.785-195.006 158.126 7.929 301.456 215.074 456.312 216.669 150.86 1.548 278.038-230.908 519.259-238.333 241.22-7.424 312.445 156.851 417.607 216.669 163.552 93.011 227.529 108.329 227.529 108.329v125.359h-3194.207v-147.023z" fill="#fff" style="mix-blend-mode:overlay" opacity=".4"/><path d="M3196.207 532.072c-157.351 0-180.562 161.285-676.61 151.667-134.531-2.604-419.344-230.908-566.456-238.333-169.855-8.586-345.443 174.316-519.259 173.331-177.589-1.009-337.598-163.056-503.518-173.331-181.942-11.272-370.042 215.543-519.25 194.994-314.702-43.327-409.114-173.331-409.114-173.331v320.365h3194.207v-255.363z" fill="url(#b)" opacity=".634"/></g></svg>
